icons/debian-filled.svg

<svg width="256" height="256" viewBox="0 0 256 256" fill="none" xmlns="http://www.w3.org/2000/svg">
<g clip-path="url(#clip0_395_16)">
<path d="M196 0H60C26.8629 0 0 26.8629 0 60V196C0 229.137 26.8629 256 60 256H196C229.137 256 256 229.137 256 196V60C256 26.8629 229.137 0 196 0Z" fill="#D70751"/>
<path d="M187.105 113.749C187.297 118.903 185.595 121.407 184.056 125.836L181.288 127.207C179.025 131.589 181.513 129.989 179.892 133.473C176.355 136.602 169.175 143.262 166.876 143.872C165.195 143.836 168.013 141.897 168.381 141.139C163.651 144.373 164.585 145.995 157.351 147.964L157.141 147.492C139.308 155.854 114.534 139.286 114.859 116.682C114.671 118.116 114.318 117.757 113.924 118.333C113.003 106.705 119.315 95.0257 129.959 90.2494C140.37 85.1169 152.575 87.2202 160.027 94.151C155.934 88.8052 147.779 83.1372 138.122 83.662C128.657 83.8156 119.8 89.8078 116.846 96.3163C111.999 99.3561 111.434 108.04 109.323 109.632C106.478 130.452 114.669 139.444 128.527 150.026C130.702 151.49 129.139 151.714 129.43 152.827C124.827 150.681 120.614 147.439 117.146 143.469C118.987 146.15 120.971 148.757 123.538 150.805C119.195 149.344 113.395 140.325 111.706 139.958C119.188 153.307 142.059 163.37 154.041 158.376C148.497 158.581 141.455 158.489 135.23 156.196C132.607 154.854 129.056 152.079 129.691 151.56C146.039 157.642 162.921 156.164 177.064 144.868C180.665 142.074 184.596 137.323 185.732 137.259C184.022 139.823 186.026 138.492 184.711 140.756C188.291 134.994 183.15 138.409 188.415 130.806L190.359 133.473C189.631 128.686 196.321 122.879 195.64 115.315C197.175 113.002 197.351 117.806 195.724 123.127C197.982 117.224 196.321 116.275 196.899 111.402C197.522 113.041 198.35 114.779 198.772 116.509C197.299 110.803 200.277 106.903 201.018 103.586C200.286 103.266 198.747 106.108 198.391 99.371C198.445 96.4443 199.211 97.8372 199.504 97.1162C198.931 96.7856 197.417 94.5414 196.499 90.2387C197.16 89.2254 198.28 92.8604 199.188 93.0076C198.603 89.5881 197.599 86.9792 197.556 84.3532C194.901 78.8281 196.616 85.0913 194.467 81.981C191.641 73.2049 196.809 79.9438 197.16 75.9589C201.438 82.1346 203.876 91.7128 205 95.6784C204.144 90.8424 202.763 86.1557 201.074 81.6226C202.377 82.1709 198.978 71.6754 202.767 78.6255C198.723 63.8103 185.473 49.9657 173.281 43.4721C174.769 44.831 176.651 46.5376 175.979 46.8063C169.911 43.2119 170.978 42.9282 170.108 41.4093C165.174 39.4062 164.844 41.5736 161.579 41.4137C152.266 36.4903 150.472 37.0129 141.903 33.9325L142.292 35.75C136.125 33.7021 135.105 36.5222 128.441 35.7545C128.036 35.4409 130.577 34.6111 132.671 34.3103C126.707 35.0953 126.985 33.137 121.149 34.5257C122.586 33.521 124.11 32.8533 125.643 32C120.781 32.2944 114.031 34.8201 116.114 32.5205C108.182 36.0489 94.0932 41 86.1871 48.3874L85.9387 46.732C82.3163 51.0646 70.1413 59.6721 69.1715 65.2889L68.2016 65.5129C66.3199 68.6935 65.0976 72.2965 63.6032 75.5667C61.139 79.7543 59.9894 77.1795 60.3405 77.8365C55.4916 87.6322 53.0788 95.8622 51 102.616C52.4815 104.824 51.0366 115.91 51.5951 124.782C49.163 168.607 82.4619 211.154 118.861 220.976C124.196 222.881 132.127 222.812 138.876 223C130.916 220.73 129.888 221.799 122.13 219.105C116.536 216.477 115.311 213.479 111.346 210.051L112.915 212.814C105.144 210.073 108.396 209.422 102.072 207.428L103.748 205.249C101.229 205.058 97.0755 201.021 95.9408 198.779L93.1833 198.888C89.8734 194.822 88.1074 191.885 88.2381 189.609L87.3474 191.192C86.339 189.466 75.1639 175.922 80.9612 179.075C79.8844 178.098 78.4521 177.481 76.9001 174.668L78.0797 173.326C75.2944 169.748 72.9458 165.164 73.1257 163.637C74.6136 165.638 75.6455 166.013 76.6689 166.357C69.6232 148.941 69.2271 165.399 63.8943 148.63L65.0204 148.54C64.1577 147.237 63.6288 145.831 62.9352 144.446L63.4277 139.572C58.3581 133.735 62.0104 114.731 62.7447 104.31C63.2478 100.073 66.9772 95.5614 69.8094 88.4855L68.0841 88.1912C71.3852 82.457 86.9279 65.1545 94.1297 66.0419C97.6172 61.6774 93.436 66.0249 92.753 64.9284C100.415 57.0291 102.824 59.3479 107.994 57.925C113.566 54.6292 103.209 59.2135 105.851 56.6686C115.491 54.2175 112.68 51.0923 125.253 49.8486C126.581 50.5995 122.177 51.0091 121.072 51.984C129.1 48.0674 146.482 48.9612 157.777 54.1556C170.873 60.2588 185.595 78.2909 186.178 95.2564L186.839 95.4334C186.505 102.179 187.875 109.98 185.497 117.143L187.105 113.749Z" fill="white"/>
</g>
<defs>
<clipPath id="clip0_395_16">
<rect width="256" height="256" fill="white"/>
</clipPath>
</defs>
</svg>

<svg xmlns="http://www.w3.org/2000/svg" width="256" height="256" fill="none"><g clip-path="url(#clip0_395_16)"><path fill="#D70751" d="M196 0H60C26.863 0 0 26.863 0 60v136c0 33.137 26.863 60 60 60h136c33.137 0 60-26.863 60-60V60c0-33.137-26.863-60-60-60"/><path fill="#fff" d="M187.105 113.749c.192 5.154-1.51 7.658-3.049 12.087l-2.768 1.371c-2.263 4.382.225 2.782-1.396 6.266-3.537 3.129-10.717 9.789-13.016 10.399-1.681-.036 1.137-1.975 1.505-2.733-4.73 3.234-3.796 4.856-11.03 6.825l-.21-.472c-17.833 8.362-42.607-8.206-42.282-30.81-.188 1.434-.541 1.075-.935 1.651-.921-11.628 5.391-23.307 16.035-28.084 10.411-5.132 22.616-3.029 30.068 3.902-4.093-5.346-12.248-11.014-21.905-10.489-9.465.154-18.322 6.146-21.276 12.654-4.847 3.04-5.412 11.724-7.523 13.316-2.845 20.82 5.346 29.812 19.204 40.394 2.175 1.464.612 1.688.903 2.801-4.603-2.146-8.816-5.388-12.284-9.358 1.841 2.681 3.825 5.288 6.392 7.336-4.343-1.461-10.143-10.48-11.832-10.847 7.482 13.349 30.353 23.412 42.335 18.418-5.544.205-12.586.113-18.811-2.18-2.623-1.342-6.174-4.117-5.539-4.636 16.348 6.082 33.23 4.604 47.373-6.692 3.601-2.794 7.532-7.545 8.668-7.609-1.71 2.564.294 1.233-1.021 3.497 3.58-5.762-1.561-2.347 3.704-9.95l1.944 2.667c-.728-4.787 5.962-10.594 5.281-18.158 1.535-2.313 1.711 2.491.084 7.812 2.258-5.903.597-6.852 1.175-11.725.623 1.639 1.451 3.377 1.873 5.107-1.473-5.706 1.505-9.606 2.246-12.923-.732-.32-2.271 2.522-2.627-4.215.054-2.927.82-1.534 1.113-2.255-.573-.33-2.087-2.575-3.005-6.877.661-1.014 1.781 2.621 2.689 2.769-.585-3.42-1.589-6.029-1.632-8.655-2.655-5.525-.94.738-3.089-2.372-2.826-8.776 2.342-2.037 2.693-6.022 4.278 6.176 6.716 15.754 7.84 19.72-.856-4.837-2.237-9.523-3.926-14.056 1.303.548-2.096-9.948 1.693-2.998-4.044-14.815-17.294-28.66-29.486-35.153 1.488 1.359 3.37 3.066 2.698 3.334-6.068-3.594-5.001-3.878-5.871-5.397-4.934-2.003-5.264.165-8.529.005-9.313-4.924-11.107-4.401-19.676-7.482l.389 1.818c-6.167-2.048-7.187.772-13.851.005-.405-.314 2.136-1.144 4.23-1.445-5.964.785-5.686-1.173-11.522.216 1.437-1.005 2.961-1.673 4.494-2.526-4.862.294-11.612 2.82-9.529.52-7.932 3.529-22.02 8.48-29.927 15.867l-.248-1.655c-3.623 4.333-15.798 12.94-16.767 18.557l-.97.224c-1.882 3.18-3.104 6.783-4.599 10.054-2.464 4.187-3.614 1.613-3.263 2.27-4.848 9.795-7.261 18.025-9.34 24.779 1.481 2.208.037 13.294.595 22.166-2.432 43.825 30.867 86.372 67.266 96.194 5.335 1.905 13.266 1.836 20.015 2.024-7.96-2.27-8.988-1.201-16.746-3.895-5.594-2.628-6.819-5.626-10.784-9.054l1.569 2.763c-7.771-2.741-4.519-3.392-10.843-5.386l1.676-2.179c-2.519-.191-6.672-4.228-7.807-6.47l-2.758.109c-3.31-4.066-5.076-7.003-4.945-9.279l-.89 1.583c-1.009-1.726-12.184-15.27-6.387-12.117-1.077-.977-2.509-1.594-4.06-4.407l1.179-1.342c-2.786-3.578-5.134-8.162-4.954-9.689 1.488 2.001 2.52 2.376 3.543 2.72-7.046-17.416-7.442-.958-12.775-17.727l1.126-.09c-.862-1.303-1.391-2.709-2.085-4.094l.493-4.874c-5.07-5.837-1.418-24.841-.683-35.262.503-4.237 4.232-8.749 7.064-15.824l-1.725-.295c3.301-5.734 18.844-23.037 26.046-22.15 3.487-4.364-.694-.016-1.377-1.113 7.662-7.899 10.071-5.58 15.241-7.003 5.572-3.296-4.785 1.289-2.143-1.256 9.64-2.451 6.829-5.577 19.402-6.82 1.328.75-3.076 1.16-4.181 2.135 8.028-3.917 25.41-3.023 36.705 2.172 13.096 6.103 27.818 24.135 28.401 41.1l.661.177c-.334 6.746 1.036 14.547-1.342 21.71z"/></g><defs><clipPath id="clip0_395_16"><path fill="#fff" d="M0 0h256v256H0z"/></clipPath></defs></svg>
